X:45
T:Quiver, The, or Cupid's Prophecy
M:2/4
L:1/8
B:Thompson's Compleat Collection of 200 Favourite Country Dances, vol. 2 (London, 1765)
Z:Transcribed and edited by Flynn Titford-Mock, 2007
Z:abc's:AK/Fiddler's Companion
K:D
f2 (3efg | f2 (3efg | f2 "tr"ed | ceAG | F2 DF | Adfa | gfed | ce "tr"e2 :|
|: A2 ce | gefd | ceAG | FAdf | Aceg | fadf | egAc | dD "tr"D2 :|

